X:9
T:B009-  All joy to fair Psyche
S:via BBBM, form 'Choice Ayres and Songs', 4th bk, 1683
Q:1/4=120
L:1/4
M:3/4
K:Dm
D|\
F3/2 G/2A|FDA|BB3/2 c/2|A2A|\
A3/2A/2 =B|c3/2B/2^c|d2 e3/4f/4|^c2c|\
dd=B|c3/2 B/2 A|BGc|A3/2=B/2c|\
=B3/2 (^c/2d/2)e/2|^cde|f3/2 e/2^c|d2d|\
dc3/2 B/2|A2c/2B/2|AG3/2F/2|E2F|\
GA3/2 A/2|B2A3/4A/4|=B^c3/2c/2|d2F|\
GA3/2 A/2|B2 A3/4A/4|=B^c3/2c/2|.d2\]

